img/svg/landingsside/arbeidsgiver.svg

<?xml version="1.0" encoding="UTF-8"?>
<svg width="19px" height="24px" viewBox="0 0 19 24" version="1.1" xmlns="http://www.w3.org/2000/svg" xmlns:xlink="http://www.w3.org/1999/xlink">
    <!-- Generator: Sketch 47.1 (45422) - http://www.bohemiancoding.com/sketch -->
    <title>building 5</title>
    <desc>Created with Sketch.</desc>
    <defs></defs>
    <g id="Landingssiden" stroke="none" stroke-width="1" fill="none" fill-rule="evenodd" stroke-linecap="round" stroke-linejoin="round">
        <g id="Ditt_Sykefravær_med-arbeidssituasjon-x2-" transform="translate(-224.000000, -1000.000000)" stroke="#000000">
            <g id="building-5" transform="translate(224.000000, 1000.000000)">
                <path d="M0.5,8.5 L10.5,8.5 L10.5,23.5 L0.5,23.5 L0.5,8.5 Z M18.5,23.5 L10.5,23.5 L10.5,8.5 L8.5,8.5 L8.5,0.5 L18.5,0.5 L18.5,23.5 Z M13.5,20.5 L16.5,20.5 L16.5,23.5 L13.5,23.5 L13.5,20.5 Z M2.5,20.5 L5.5,20.5 L5.5,23.5 L2.5,23.5 L2.5,20.5 Z M0.5,10.5 L4.5,10.5 L0.5,10.5 Z M0.5,12.5 L3.5,12.5 L0.5,12.5 Z M8.5,4.5 L12.5,4.5 L8.5,4.5 Z M8.5,2.5 L14.5,2.5 L8.5,2.5 Z M8.5,6.5 L11.5,6.5 L8.5,6.5 Z M0.5,14.5 L2.5,14.5 L0.5,14.5 Z" id="Shape"></path>
            </g>
        </g>
    </g>
</svg>

<svg width="19" height="24" viewBox="0 0 19 24" xmlns="http://www.w3.org/2000/svg"><path d="M.5 8.5h10v15H.5v-15zm18 15h-8v-15h-2v-8h10v23zm-5-3h3v3h-3v-3zm-11 0h3v3h-3v-3zm-2-10h4-4zm0 2h3-3zm8-8h4-4zm0-2h6-6zm0 4h3-3zm-8 8h2-2z" stroke="#000" fill="none" fill-rule="evenodd" stroke-linecap="round" stroke-linejoin="round"/></svg>
